mobile/apps/auth/assets/custom-icons/icons/odido.svg

<svg xmlns="http://www.w3.org/2000/svg" fill="none" viewBox="0 0 500 500"><g clip-path="url(#a)"><path fill="url(#b)" d="M.05 249.67c0 36.869 29.75 66.718 66.316 66.718 36.672 0 66.325-29.85 66.324-66.62.098-36.862-29.652-66.719-66.324-66.718C29.8 183.05.049 212.907.049 249.67Z"/><path fill="url(#c)" d="M216.841 316.39h66.316V183.051h-66.316V316.39Z"/><path fill="url(#d)" d="M292.074 249.769c0 36.77 29.652 66.62 66.316 66.62v-133.24c-36.565 0-66.316 29.856-66.316 66.62Z"/><path fill="url(#e)" d="M367.311 249.669c-.098 36.869 29.652 66.719 66.324 66.718 36.664 0 66.315-29.85 66.316-66.62 0-36.862-29.752-66.718-66.316-66.718-36.672 0-66.324 29.857-66.324 66.62Z"/><path fill="url(#f)" d="M141.606 316.29h.223c36.39-.12 65.975-29.809 66.094-66.396v-.447c-.119-36.662-29.727-66.397-66.317-66.397v133.24Z"/></g><defs><linearGradient id="b" x1="20.347" x2="111.35" y1="203.643" y2="294.643" gradientUnits="userSpaceOnUse"><stop stop-color="#2E79EF"/><stop offset="1" stop-color="#389D93"/></linearGradient><linearGradient id="c" x1="249.999" x2="249.999" y1="181.755" y2="314.902" gradientUnits="userSpaceOnUse"><stop stop-color="#FBB94B"/><stop offset="1" stop-color="#FC7E27"/></linearGradient><linearGradient id="d" x1="313.603" x2="369.66" y1="202.507" y2="308.742" gradientUnits="userSpaceOnUse"><stop stop-color="#FDAF60"/><stop offset="1" stop-color="#AB82D5"/></linearGradient><linearGradient id="e" x1="387.221" x2="479.936" y1="203.334" y2="296.048" gradientUnits="userSpaceOnUse"><stop stop-color="#FC9AA2"/><stop offset="1" stop-color="#7269FE"/></linearGradient><linearGradient id="f" x1="141.612" x2="207.971" y1="249.703" y2="249.703" gradientUnits="userSpaceOnUse"><stop stop-color="#87B391"/><stop offset="1" stop-color="#DFB962"/></linearGradient><clipPath id="a"><path fill="#fff" d="M0 0h500v500H0z"/></clipPath></defs></svg>

<svg width="500" height="500" viewBox="0 0 500 500" fill="none" xmlns="http://www.w3.org/2000/svg">
<g clip-path="url(#clip0_191_1018)">
<path d="M0.0492147 249.67C0.0499258 286.539 29.8004 316.388 66.3661 316.388C103.038 316.388 132.691 286.538 132.69 249.768C132.788 212.906 103.038 183.049 66.3658 183.05C29.8001 183.05 0.0494268 212.907 0.0492147 249.67Z" fill="url(#paint0_linear_191_1018)"/>
<path d="M216.841 316.39H283.157V183.051H216.841V316.39Z" fill="url(#paint1_linear_191_1018)"/>
<path d="M292.074 249.769C292.074 286.539 321.726 316.389 358.39 316.389V183.149C321.825 183.149 292.074 213.005 292.074 249.769Z" fill="url(#paint2_linear_191_1018)"/>
<path d="M367.311 249.669C367.213 286.538 396.963 316.388 433.635 316.387C470.299 316.387 499.95 286.537 499.951 249.767C499.951 212.905 470.199 183.049 433.635 183.049C396.963 183.049 367.311 212.906 367.311 249.669Z" fill="url(#paint3_linear_191_1018)"/>
<path d="M141.606 316.29H141.829C178.219 316.17 207.804 286.481 207.923 249.894V249.447C207.804 212.785 178.196 183.05 141.606 183.05V316.29Z" fill="url(#paint4_linear_191_1018)"/>
</g>
<defs>
<linearGradient id="paint0_linear_191_1018" x1="20.3472" y1="203.643" x2="111.35" y2="294.643" gradientUnits="userSpaceOnUse">
<stop stop-color="#2E79EF"/>
<stop offset="1" stop-color="#389D93"/>
</linearGradient>
<linearGradient id="paint1_linear_191_1018" x1="249.999" y1="181.755" x2="249.999" y2="314.902" gradientUnits="userSpaceOnUse">
<stop stop-color="#FBB94B"/>
<stop offset="1" stop-color="#FC7E27"/>
</linearGradient>
<linearGradient id="paint2_linear_191_1018" x1="313.603" y1="202.507" x2="369.66" y2="308.742" gradientUnits="userSpaceOnUse">
<stop stop-color="#FDAF60"/>
<stop offset="1" stop-color="#AB82D5"/>
</linearGradient>
<linearGradient id="paint3_linear_191_1018" x1="387.221" y1="203.334" x2="479.936" y2="296.048" gradientUnits="userSpaceOnUse">
<stop stop-color="#FC9AA2"/>
<stop offset="1" stop-color="#7269FE"/>
</linearGradient>
<linearGradient id="paint4_linear_191_1018" x1="141.612" y1="249.703" x2="207.971" y2="249.703" gradientUnits="userSpaceOnUse">
<stop stop-color="#87B391"/>
<stop offset="1" stop-color="#DFB962"/>
</linearGradient>
<clipPath id="clip0_191_1018">
<rect width="500" height="500" fill="white"/>
</clipPath>
</defs>
</svg>
